static/svg/voronoi.svg

<?xml version="1.0" encoding="UTF-8" standalone="no"?>
<svg
   xmlns:dc="http://purl.org/dc/elements/1.1/"
   xmlns:cc="http://creativecommons.org/ns#"
   xmlns:rdf="http://www.w3.org/1999/02/22-rdf-syntax-ns#"
   xmlns:svg="http://www.w3.org/2000/svg"
   xmlns="http://www.w3.org/2000/svg"
   xmlns:sodipodi="http://sodipodi.sourceforge.net/DTD/sodipodi-0.dtd"
   xmlns:inkscape="http://www.inkscape.org/namespaces/inkscape"
   version="1.1"
   viewBox="0 0 1142.125 1082.0995"
   width="100"
   height="95"
   id="svg1008"
   sodipodi:docname="voronoi.svg"
   inkscape:version="0.92.4 5da689c313, 2019-01-14">
  <metadata
     id="metadata1014">
    <rdf:RDF>
      <cc:Work
         rdf:about="">
        <dc:format>image/svg+xml</dc:format>
        <dc:type
           rdf:resource="http://purl.org/dc/dcmitype/StillImage" />
      </cc:Work>
    </rdf:RDF>
  </metadata>
  <defs
     id="defs1012" />
  <sodipodi:namedview
     pagecolor="#ffffff"
     bordercolor="#666666"
     borderopacity="1"
     objecttolerance="10"
     gridtolerance="10"
     guidetolerance="10"
     inkscape:pageopacity="0"
     inkscape:pageshadow="2"
     inkscape:window-width="1918"
     inkscape:window-height="980"
     id="namedview1010"
     showgrid="false"
     inkscape:zoom="7.8116776"
     inkscape:cx="50"
     inkscape:cy="47.5"
     inkscape:window-x="0"
     inkscape:window-y="0"
     inkscape:window-maximized="1"
     inkscape:current-layer="svg1008" />
  <path
     inkscape:connector-curvature="0"
     id="path964"
     style="fill:#00ced1;stroke:#000000;stroke-width:2"
     d="M -238396.15,-999971.31 -999998.94,-368011.53 315.12018,304.94662 529.69673,183.39459 Z" />
  <path
     inkscape:connector-curvature="0"
     id="path966"
     style="fill:#b285c1;stroke:#000000;stroke-width:2"
     d="M -999998.94,-368011.53 V 103584.16 L 342.73916,456.15434 l 3.37838,-63.8515 -30.99736,-87.35622 z" />
  <path
     inkscape:connector-curvature="0"
     id="path968"
     style="fill:#226726;stroke:#000000;stroke-width:2"
     d="m 315.12018,304.94662 30.99736,87.35622 349.49645,-13.79591 9.19363,-17.97314 -175.11089,-177.1392 z" />
  <path
     inkscape:connector-curvature="0"
     id="path970"
     style="fill:#cc3c00;stroke:#000000;stroke-width:2"
     d="M -238396.15,-999971.31 529.69673,183.39459 704.80762,360.53379 902.66333,289.7829 10590.423,-999971.31 Z" />
  <path
     inkscape:connector-curvature="0"
     id="path972"
     style="fill:#ffe414;stroke:#000000;stroke-width:2"
     d="m 346.11754,392.30284 -3.37838,63.8515 164.96374,339.40815 73.88075,-80.43175 114.03034,-336.62381 z" />
  <path
     inkscape:connector-curvature="0"
     id="path974"
     style="fill:#14fff2;stroke:#000000;stroke-width:2"
     d="M 704.80762,360.53379 695.61399,378.50693 581.58365,715.13074 722.61036,709.16422 1387.5321,534.75852 902.66333,289.7829 Z" />
  <path
     inkscape:connector-curvature="0"
     id="path976"
     style="fill:#56ff14;stroke:#000000;stroke-width:2"
     d="M 902.66333,289.7829 1387.5321,534.75852 1000001.1,292553.56 10590.423,-999971.31 Z" />
  <path
     inkscape:connector-curvature="0"
     id="path978"
     style="fill:#ff3514;stroke:#000000;stroke-width:2"
     d="M -999998.94,103584.16 -512785.97,1000028.7 507.7029,795.56249 342.73916,456.15434 Z" />
  <path
     inkscape:connector-curvature="0"
     id="path980"
     style="fill:#ee14ff;stroke:#000000;stroke-width:2"
     d="M 722.61036,709.16422 581.58365,715.13074 507.7029,795.56249 -512785.97,1000028.7 1000001.1,480881.92 Z" />
  <path
     inkscape:connector-curvature="0"
     id="path982"
     style="fill:#ffb914;stroke:#000000;stroke-width:2"
     d="M 722.61036,709.16422 1000001.1,480881.92 V 292553.56 L 1387.5321,534.75852 Z" />
  <circle
     style="stroke:#000000;stroke-width:4"
     id="circle986"
     cy="177.69318"
     cx="338.0625"
     r="2" />
  <circle
     style="stroke:#000000;stroke-width:4"
     id="circle988"
     cy="416.69318"
     cx="250.0625"
     r="2" />
  <circle
     style="stroke:#000000;stroke-width:4"
     id="circle990"
     cy="350.69318"
     cx="436.0625"
     r="2" />
  <circle
     style="stroke:#000000;stroke-width:4"
     id="circle992"
     cy="91.693169"
     cx="698.0625"
     r="2" />
  <circle
     style="stroke:#000000;stroke-width:4"
     id="circle994"
     cy="426.69318"
     cx="439.0625"
     r="2" />
  <circle
     style="stroke:#000000;stroke-width:4"
     id="circle996"
     cy="572.69318"
     cx="870.0625"
     r="2" />
  <circle
     style="stroke:#000000;stroke-width:4"
     id="circle998"
     cy="95.693169"
     cx="1111.0625"
     r="2" />
  <circle
     style="stroke:#000000;stroke-width:4"
     id="circle1000"
     cy="513.69318"
     cx="260.0625"
     r="2" />
  <circle
     style="stroke:#000000;stroke-width:4"
     id="circle1002"
     cy="832.69318"
     cx="881.0625"
     r="2" />
  <circle
     style="stroke:#000000;stroke-width:4"
     id="circle1004"
     cy="755.69318"
     cx="918.0625"
     r="2" />
</svg>

<svg xmlns="http://www.w3.org/2000/svg" viewBox="0 0 1142.125 1082.1" width="100" height="95">
  <path d="M-238396.15-999971.31l-761602.79 631959.78L315.12 304.947l214.577-121.552z" fill="#00ced1" stroke="#000" stroke-width="2"/>
  <path d="M-999998.94-368011.53v471595.69L342.74 456.154l3.378-63.851-30.998-87.356z" fill="#b285c1" stroke="#000" stroke-width="2"/>
  <path d="M315.12 304.947l30.998 87.356 349.496-13.796 9.194-17.973-175.111-177.14z" fill="#226726" stroke="#000" stroke-width="2"/>
  <path d="M-238396.15-999971.31L529.697 183.395l175.11 177.139 197.856-70.751 9687.76-1000261.093z" fill="#cc3c00" stroke="#000" stroke-width="2"/>
  <path d="M346.118 392.303l-3.379 63.851 164.964 339.408 73.88-80.431 114.031-336.624z" fill="#ffe414" stroke="#000" stroke-width="2"/>
  <path d="M704.808 360.534l-9.194 17.973-114.03 336.624 141.026-5.967 664.922-174.405-484.869-244.976z" fill="#14fff2" stroke="#000" stroke-width="2"/>
  <path d="M902.663 289.783l484.87 244.976L1000001.1 292553.56 10590.423-999971.31z" fill="#56ff14" stroke="#000" stroke-width="2"/>
  <path d="M-999998.94 103584.16l487212.97 896444.54L507.703 795.562 342.739 456.154z" fill="#ff3514" stroke="#000" stroke-width="2"/>
  <path d="M722.61 709.164l-141.026 5.967-73.881 80.431L-512785.97 1000028.7 1000001.1 480881.92z" fill="#ee14ff" stroke="#000" stroke-width="2"/>
  <path d="M722.61 709.164L1000001.1 480881.92V292553.56L1387.532 534.759z" fill="#ffb914" stroke="#000" stroke-width="2"/>
  <circle cy="177.693" cx="338.063" r="2" stroke="#000" stroke-width="4"/>
  <circle cy="416.693" cx="250.063" r="2" stroke="#000" stroke-width="4"/>
  <circle cy="350.693" cx="436.063" r="2" stroke="#000" stroke-width="4"/>
  <circle cy="91.693" cx="698.063" r="2" stroke="#000" stroke-width="4"/>
  <circle cy="426.693" cx="439.063" r="2" stroke="#000" stroke-width="4"/>
  <circle cy="572.693" cx="870.063" r="2" stroke="#000" stroke-width="4"/>
  <circle cy="95.693" cx="1111.063" r="2" stroke="#000" stroke-width="4"/>
  <circle cy="513.693" cx="260.063" r="2" stroke="#000" stroke-width="4"/>
  <circle cy="832.693" cx="881.063" r="2" stroke="#000" stroke-width="4"/>
  <circle cy="755.693" cx="918.063" r="2" stroke="#000" stroke-width="4"/>
</svg>
